svgs/regular/circle-b.svg

<svg xmlns="http://www.w3.org/2000/svg" viewBox="0 0 512 512"><!-- Font Awesome Pro 6.0.0-alpha2 by @fontawesome - https://fontawesome.com License - https://fontawesome.com/license (Commercial License) --><path d="M337.883 247.82C346.699 235.41 352 220.346 352 204C352 162.094 317.906 128 276 128H184C170.75 128 160 138.75 160 152V360C160 373.25 170.75 384 184 384H292C333.906 384 368 349.906 368 308C368 283.4 356.062 261.719 337.883 247.82ZM208 176H276C291.438 176 304 188.562 304 204S291.438 232 276 232H208V176ZM292 336H208V280H292C307.438 280 320 292.562 320 308S307.438 336 292 336ZM256 16C123.451 16 16 123.451 16 256S123.451 496 256 496S496 388.549 496 256S388.549 16 256 16ZM256 448C150.131 448 64 361.869 64 256S150.131 64 256 64S448 150.131 448 256S361.869 448 256 448Z"/></svg>

<svg xmlns="http://www.w3.org/2000/svg" viewBox="0 0 512 512"><!--! Font Awesome Pro 6.3.0 by @fontawesome - https://fontawesome.com License - https://fontawesome.com/license (Commercial License) Copyright 2023 Fonticons, Inc. --><path d="M256 48a208 208 0 1 1 0 416 208 208 0 1 1 0-416zm0 464A256 256 0 1 0 256 0a256 256 0 1 0 0 512zM160 152V256 360c0 13.3 10.7 24 24 24H292c42 0 76-34 76-76c0-24.6-11.7-46.4-29.8-60.3c8.7-12.4 13.8-27.4 13.8-43.7c0-42-34-76-76-76H184c-13.3 0-24 10.7-24 24zm144 52c0 15.5-12.5 28-28 28H208V176h68c15.5 0 28 12.5 28 28zM208 336V280h68 16c15.5 0 28 12.5 28 28s-12.5 28-28 28H208z"/></svg>
